X: 474
T: Cincinnati Rag
B: jims roots
M:2/4
L:1/8
Q: 1/4=100
K:G
V:1 
dc | "G"Bdba gece | d^cdB GB=cB | "A"Acfe "D"dcBA |
"G"GDGB d2dc | Bdba gece | d^cdB GFGB | "A"Acfe "D"dcBA | "G"G2B2 G2 ||
"A"Aceg c'bag | "D"fbaf dcd^d | "A"fecA bage | "D"d2f2 d2||
V:K:D 
B_B | "A"Aceg c'bag | "D"fbaf dcd^d | "A"fecA GAfe | "D"edAF D2B_B |
% abcbook-tune_id 6298c2454e3563894f721218


% abcbook-boost 0
% abcbook-tablature 
% abcbook-transpose 
% abcbook-lastupdated 1654178373728
% abcbook-soundfonts 
% abcbook-repeats 1


